X:1
T:Title
%%score { ( 1 3 ) | ( 2 4 ) }
L:1/8
M:4/4
K:C
V:1 treble nm="Grand Piano"
V:3 treble 
V:2 bass 
V:4 bass 
V:1
 z4 z2[Q:1/4=100] G>G | [Ec]2 [Ec]>[Ec] [_EB]2 [EA]2 | [EG]>[FA] [EG]>[DF] E2 E>E | %3
 [B,G]2 [B,F]2 [B,D]2 [B,FG]>[B,FG] | [CEA]2 [CEG]2 [G,CE]2 G>G | [Ec]2 [Ec]>[Ec] [_EB]2 [EA]2 | %6
[M:3/4] [EG]>[FA] [EG]>[DF] E2 |[M:1/4] E>E |[M:4/4] D2 G>[GB] [^Fd]2 F2 |[M:3/4] G6 | %10
[M:1/4][K:bass] C,>E, |[M:4/4][K:treble] z2 c2 z4 | [EGc]2 [EGc]2 c2 G>c | B6 z2 |[M:3/4] c6 | %15
[M:1/4] [Gc]>[GB] |[M:4/4] [FA]3 [GB] [Ac]2 [FA]2 | [EG]>[_E^F] [=EG]>[=FA] [EG]2 G>[GA] | %18
 [GB]2 [Gc]>[Gd] [^Fe]2 F2 |[M:3/4] G6 |[M:1/4][K:bass] C,>E, |[M:4/4][K:treble] z2 c2 z4 | %22
 [EGc]2 [EGc]2 c2 G>c | B6 z2 |[M:3/4] c6 |[M:1/4] G>G |[M:4/4] [Ge]2 [Gd]2 [Gc]2 [Ad]>[Ae] | %27
 [Af]2 [Ae]2 [Ad]2 [A_e]2 | e>c B>A G2 d2 |[M:3/4] [Ec]6 |] %30
V:2
 z4 z2 G,>G, | [C,G,]2 [C,G,]>[C,G,] [C,^F,]2 [C,F,]2 | %2
 [C,G,]>[C,G,] [C,C]>[C,G,] [C,G,C]2 [C,G,C]>[C,G,C] | [G,,G,]2 [G,,G,]2 [G,,G,]2 G,,>G,, | %4
 C,2 C,2 C,2 G,>G, | [C,G,]2 [C,G,]>[C,G,] [C,^F,]2 [C,F,]2 | %6
[M:3/4] [C,G,]>[C,G,] [C,C]>[C,G,] [C,G,C]2 |[M:1/4] [C,G,_B,]>[C,G,B,] | %8
[M:4/4] [D,G,B,]2 [D,B,D]>[D,D] [D,A,]2 [D,CD]2 |[M:3/4] [G,B,D]6 |[M:1/4] z2 | %11
[M:4/4][K:treble] [EG]2 [EG]2 [G,EG]2 [CEG]2 | G,>[K:bass]^F, G,>A,[K:treble] [G,EG]2 z2 | %13
 z2 [G,D]>[G,D] [G,D]2 z2 |[M:3/4] z2[K:bass] [C,G,]>[C,G,] [C,G,]2 |[M:1/4] [E,C]>[E,C] | %16
[M:4/4] [F,C]3 [F,C] [F,F]2 [F,C]2 | [C,C]>[C,C] [C,C]>[C,C] [C,C]2 [E,C]>[D,^C] | %18
 [D,D]2 [D,A,]>[D,B,] [D,C]2 [D,CD]2 |[M:3/4] [G,B,D]6 |[M:1/4] z2 | %21
[M:4/4][K:treble] [EG]2 [EG]2 [G,EG]2 [CEG]2 | G,>[K:bass]^F, G,>A,[K:treble] [G,EG]2 z2 | %23
 z2 [G,D]>[G,D] [G,D]2 z2 |[M:3/4] z2[K:bass] [C,G,]>[C,G,] [C,G,]2 |[M:1/4] G,>G, | %26
[M:4/4] [C,C]2 [D,B,]2 [E,C]2 [F,A,]>[E,^C] | [D,D]2 [E,^C]2 [F,D]2 [^F,=C]2 | %28
 [G,CG]>C B,>A, G,2 [G,B,F]2 |[M:3/4][K:bass] [C,G,C]6 |] %30
V:3
 x8 | x8 | x8 | x8 | x8 | x8 |[M:3/4] x6 |[M:1/4] x2 |[M:4/4] x8 |[M:3/4] x6 |[M:1/4][K:bass] x2 | %11
[M:4/4][K:treble] c2 z E, c2 c2 | x8 | z2 F>F F2 G>d |[M:3/4] z2 E>E E2 |[M:1/4] x2 |[M:4/4] x8 | %17
 x8 | x8 |[M:3/4] x6 |[M:1/4][K:bass] x2 |[M:4/4][K:treble] c2 z E, c2 c2 | x8 | z2 F>F F2 G>d | %24
[M:3/4] z2 E>E E2 |[M:1/4] x2 |[M:4/4] x8 | x8 | x8 |[M:3/4] x6 |] %30
V:4
 x8 | x8 | x8 | x8 | x8 | x8 |[M:3/4] x6 |[M:1/4] x2 |[M:4/4] x8 |[M:3/4] x6 |[M:1/4] x2 | %11
[M:4/4][K:treble] G,4 z4 | x3/2[K:bass] x5/2[K:treble] x4 | x8 |[M:3/4] x2[K:bass] x4 |[M:1/4] x2 | %16
[M:4/4] x8 | x8 | x8 |[M:3/4] x6 |[M:1/4] x2 |[M:4/4][K:treble] G,4 z4 | %22
 x3/2[K:bass] x5/2[K:treble] x4 | x8 |[M:3/4] x2[K:bass] x4 |[M:1/4] x2 |[M:4/4] x8 | x8 | x8 | %29
[M:3/4][K:bass] x6 |] %30

